X:1
T:Title
%%score { ( 1 4 ) | ( 2 3 ) }
L:1/8
Q:1/4=112
M:4/4
K:C
V:1 treble nm="Grand Piano"
V:4 treble 
V:2 bass 
V:3 bass 
V:1
 [EG]3- [EG]/[_E^F]/ [=EG]3- [EG]/[_EF]/ | [EG]2 [Ec]2 [EB]2 [EA]2 | [EG]4 [EA]2 [CE]2 | %3
w: Grant~Colfax~Tullar * * * * *|||
 [B,F]6 z2 | [DF]3- [DF]/[CE]/ [DF]3- [DF]/[CE]/ | [DF]2 [Ac]2 [GB]2 [FA]2 | [G,EG]4 [G,DF]4 | %7
w: ||||
 [G,CE]6 z2 | [CEG]3- [CEG]/[_E^F]/ [=EG]3- [EG]/[_EF]/ | [EG]2 [Ec]2 [FB]2 [Gc]2 | %10
w: |||
 [Ad]4 [Ac]2 [Ad]2 | [^Ge]6 z2 | [Ad]3 [Ac] [GB]2 A2 | G2 [Gc]2 [Gd]2 [Ge]2 | [^Fe]4 z4 | %15
w: |||||
 [CEc]6 z2 | G3 E C2 E2 | A4 G2 EG | [Ec]4 [Fd]2 [Ec]2 | [DB]6 z2 | [Bd]3 d c2 c2 | B4 A4 | %22
w: |||||||
 A2 G2 F2 G2 | [CE]6 z2 | G3 E C2 E2 | A4 G2 EG | [CGc]4 [Ad]2 [Ad]2 | [^Ge]6 z2 | %28
w: ||||||
 [Ad]3 [Ac] [GB]2 A2 | G2 [Gc]2 [Gd]2 [Ge]2 | [^Fe]4 z4 | [Ec]6 z2 |] %32
w: ||||
V:2
 [C,C]3- [C,C]/[C,C]/ [C,C]3- [C,C]/[C,C]/ | [C,C]2 [C,G,]2 [C,G,]2 [C,G,]2 | %2
 [C,C]4 [C,C]2 [C,G,]2 | [D,G,]6 z2 | [G,,G,]3- [G,,G,]/[G,,G,]/ [G,,G,]3- [G,,G,]/[G,,G,]/ | %5
 [G,,G,]2 [G,,G,]2 [G,,G,]2 [G,,G,]2 | G,,2 A,,2 B,,2 G,,2 | C,6 z2 | %8
 C,,2 z z/ [C,C]/ [C,C]3- [C,C]/[C,C]/ | [C,C]2 [C,G,]2 [C,G,]2 [E,C]2 | [F,C]4 [F,E]2 [F,A,]2 | %11
 [E,B,]6 z2 | [F,A,]3 [F,A,] [F,B,]2 [F,CF]2 | [E,C]2 [E,C]2 [D,B,]2 [C,C]2 | C2 z2 [G,B,F]4 | %15
 C,6 z2 | G,3 E, C,2 E,2 | [E,A,]4 G,2 E,G, | [A,,C,G,]4 [B,,G,]2 G,-[E,G,] | G,6 z2 | %20
 z2 z B A2 A2 | G4 F4 | F2 E2 D2[K:bass] B,2 | C,2 E,2 A,2 ^G,2 | G,3 E, C,2 E,2 | A,4 G,2 E,G, | %26
 E,4 [F,C]2 [F,A,]2 | [E,B,]6 z2 | [F,A,]3 [F,A,] [F,B,]2 [F,CF]2 | [E,C]2 [E,C]2 [D,B,]2 [C,C]2 | %30
 C2 z2 [G,B,F]4 | [C,C]6 z2 |] %32
V:3
 x8 | x8 | x8 | x8 | x8 | x8 | x8 | z2 A,,2 G,,2 E,,2 | C,4 z4 | x8 | x8 | x8 | x8 | x8 | D,4 z4 | %15
 x8 | x8 | x8 | z4 z2 .C,2 | x8 | G,,8- | G,,8- | G,,8[K:bass] | x8 | x8 | x8 | x8 | x8 | x8 | x8 | %30
 D,4 z4 | x8 |] %32
V:4
 x8 | x8 | x8 | x8 | x8 | x8 | x8 | x8 | x8 | x8 | x8 | x8 | x8 | x8 | z2 A,2 d4 | x8 | x8 | x8 | %18
 x8 | x8 | x8 | x8 | x8 | x8 | x8 | x8 | x8 | x8 | x8 | x8 | z2 A,2 d4 | x8 |] %32

